!!!!SEGMENT: pl-sa--207-a-vi-11--001_pych-leopold--passio-domini-nostri-1.krn
!!!cenid: 17xx:373
!!!COM: Pych, Leopold
!!!COM-rismID: pe30018039
!!!CDT: <1758->1774
!!!CNT:
!!!OPR: Passio Domini nostri
!!!OTL: Pars 1ma
!!!OMV: 001
!!!PDT: 1778
!!!AGN: Sacred
!!!SMS-siglum: PL-SA
!!!SMS-shelfmark: 207/A VI 11
!!!SMS-shelfwork: 001-001 M
!!!NIFC-rismSourceID: 1001077266
!!!NIFC-rismChildID: 1001077266
!!!NIFC-islandoraID:
!!!URL-pdf-islandora:
!!!URL-scan: https://bc.bdsandomierz.pl/dlibra/publication/1563/edition/1531/content @EN{Scan in the Sandomierz Diocese Digital Library} @PL{Skany w portalu Cyfrowa Biblioteka Diecezjalna w Sandomierzu}
!!!ONB-nifc: UWAGA: części: Pars 1ma, Pars 2da, Pars 3tia
!!!AIN: 4 empty 1 oboe 2 violn
!!!key:
**kern	**fba	**kern	**dynam	**kern	**dynam	**kern	**text	**kern	**dynam	**kern	**dynam	**kern	**dynam
*part7	*	*part6	*part6	*part5	*part5	*part4	*part4	*part3	*part3	*part2	*part2	*part1	*part1
*staff7	*	*staff6	*	*staff5	*	*staff4	*staff4	*staff3	*	*staff2	*	*staff1	*
*Iempty	*	*Ivioln	*	*Ivioln	*	*Iempty	*	*Iempty	*	*Iempty	*	*Ioboe	*
*I"Fundamento	*	*I"Violino Secundo	*	*I"Violino Primo	*	*I"Baſso	*	*I"Cornu 2do in F:	*	*I"Cornu 1mo in F:	*	*I"Oboe Solo	*
*I'F.(Org)	*	*I'V-no II	*	*I'V-no I	*	*I'B.	*	*I'C. II	*	*I'C. I	*	*I'Ob.	*
*clefF4	*	*clefG2	*	*clefG2	*	*clefF4	*	*clefG2	*	*clefG2	*	*clefG2	*
*	*	*	*	*	*	*	*	*ITrd4c7	*	*ITrd4c7	*	*	*
*k[b-]	*	*k[b-]	*	*k[b-]	*	*k[b-]	*	*k[b-]	*	*k[b-]	*	*k[b-]	*
*F:	*	*F:	*	*F:	*	*F:	*	*F:	*	*F:	*	*F:	*
*M4/4	*	*M4/4	*	*M4/4	*	*M4/4	*	*M4/4	*	*M4/4	*	*M4/4	*
*met(c)	*	*met(c)	*	*met(c)	*	*met(c)	*	*met(c)	*	*met(c)	*	*met(c)	*
=1	=1	=1	=1	=1	=1	=1	=1	=1	=1	=1	=1	=1	=1
*	*	*2\right	*	*	*	*	*	*	*	*	*	*2\right	*
!	!	!	!	!	!	!LO:TX:i:a:t=Tardiſsime	!	!	!	!	!	!	!
!LO:TX:i:a:t=Tardiſsime	!	!LO:TX:i:a:t=Tardiſſime	!	!LO:TX:i:a:t=Tardiſſime	!	!LO:TX:a:t=P:problem=wszystkie caudy są po prawej stronie	!	!LO:TX:i:a:t=Adagio	!	!LO:TX:i:a:t=Adagio	!	!LO:TX:i:a:t=Tardiſſime	!
4.F\	.	2cc\	.	2aa\	.	4.F\	Pa-	4.f\	.	4.a\	.	2aa\	.
8F\	.	.	.	.	.	8F\	-ſsi-	8f\	.	8a\	.	.	.
4F\	.	4cc\	.	4aa\	.	4F\	-o	4f\	.	4a\	.	4aa\	.
8F\L	.	4r	.	4r	.	8F\	Do-	8r	.	8r	.	4r	.
8F\J	.	.	.	.	.	16F\	-mi-	8f\	.	8a\	.	.	.
.	.	.	.	.	.	16F\	-ni	.	.	.	.	.	.
=2	=2	=2	=2	=2	=2	=2	=2	=2	=2	=2	=2	=2	=2
8D/L	.	4r	.	4r	.	8D/	no-	8f\L	.	8a\L	.	4r	.
8D/	.	.	.	.	.	8D/	-stri	8f\	.	8a\	.	.	.
8D/	.	8r	.	8r	.	8D/	.	8f\	.	8a\	.	8r	.
8D/J	.	8a/	.	8ff\	.	8D/	Jesu	8f\J	.	8a\J	.	8ff\	.
!	!	!	!	!	!	!LO:SIC:o=A	!	!	!	!	!	!	!
4BBn/	7	8a/L	.	8ff\L	.	4BBn/	Chri-	4f\	.	4a\	.	8ff\L	.
.	.	8a/	.	8ff\	.	.	.	.	.	.	.	8ff\	.
!	!	!	!	!	!	!LO:SIC:o=te	!	!	!	!	!	!	!
8BB/	.	8a/	.	8ff\	.	8BB/	-ste	4r	.	4r	.	8ff\	.
8r	.	8a/J	.	8ff\J	.	8r	.	.	.	.	.	8ff\J	.
=3	=3	=3	=3	=3	=3	=3	=3	=3	=3	=3	=3	=3	=3
!	!	!	!	!LO:TX:a:t=P:problem=mixed beam	!	!	!	!	!	!	!	!LO:TX:a:t=P:problem=mixed beam	!
8r	.	8a/L	.	8ff\L	.	8r	.	8r	.	8r	.	8ff\L	.
8BBn/L	.	8f/	.	8a/	.	8BB-/	Se-	8f\L	.	8a\L	.	8a/	.
8BB/	.	8f/	.	8a/	.	16BB-/	-cun-	8f\	.	8a\	.	8a/	.
.	.	.	.	.	.	16BB-/	-dum	.	.	.	.	.	.
8BB/J	.	8f/J	.	8a/J	.	4C/	.	8f\J	.	8a\J	.	8a/J	.
.	.	.	.	.	.	.	.	8qg/	.	8qb-/	.	.	.
8C/L	6 4	8f/L	.	8a/L	.	.	.	8f\L	.	8a\L	.	8aa\L	.
!	!	!	!	!	!	!LO:SIC:s=8C (prawdopodobnie)	!	!	!	!	!	!	!
!	!	!	!	!	!	!LO:N:vis=4	!	!	!	!	!	!	!
8C/J	5 3	8e/J	.	8g/J	.	8C/	Matheum	8c\J	.	8g\J	.	8gg\J	.
!	!	!	!	!	!	!LO:SIC:s=4r (prawdopodobnie)	!	!	!	!	!	!	!
4CC/	.	4e/	.	4g/	.	4ryy	.	4c/	.	4g\	.	4gg\	.
=4	=4	=4	=4	=4	=4	=4	=4	=4	=4	=4	=4	=4	=4
2rBB	.	(>16ee\LL	.	(>16gg\LL	.	2rBB	.	2rg	.	2rg	.	(>16gg\LL	.
.	.	16dd\)	.	16ff\)	.	.	.	.	.	.	.	16ff\)	.
.	.	(>16dd\	.	(>16ff\	.	.	.	.	.	.	.	(>16ff\	.
.	.	16cc\JJ)	.	16ee\JJ)	.	.	.	.	.	.	.	16ee\JJ)	.
.	.	(<16g/LL	.	(>16ee\LL	.	.	.	.	.	.	.	16ee\LL	.
.	.	16f/)	.	16dd\)	.	.	.	.	.	.	.	16dd\	.
.	.	(<16f/	.	(>16dd\	.	.	.	.	.	.	.	16dd\	.
.	.	16e/JJ)	.	16cc\JJ)	.	.	.	.	.	.	.	16cc\JJ	.
!	!	!	!	!	!	!LO:LB:g=original	!	!	!	!	!	!	!
8r	.	8e/L	.	8b-/L	.	8r	.	8r	.	8r	.	8bb-\L	.
8E\L	6	8g/	.	8b-/	.	8E\	in	8g\L	.	8b-\L	.	8bb-\	.
8E\	5	8g/	.	8b-/	.	8E\	di-	8g\	.	8b-\	.	8bb-\	.
8E\J	.	8g/J	.	8b-/J	.	8E\	-lo	8g\J	.	8b-\J	.	8bb-\J	.
=5	=5	=5	=5	=5	=5	=5	=5	=5	=5	=5	=5	=5	=5
.	.	.	.	.	.	.	.	.	.	8qqb-/	.	.	.
8.F\L	.	8.c/L	.	8.a/L	.	8.F\	tem-	8.f\L	.	8.a\L	.	8.aa\L	.
16F\Jk	.	16c/Jk	.	16a/Jk	.	16F\	-po-	16f\Jk	.	16a\Jk	.	16aa\Jk	.
4F\	.	4c/	.	4a/	.	4F\	-re	4f\	.	4a\	.	4aa\	.
*custos:A	*	*	*	*	*	*	*	*	*	*	*	*	*
!LO:LB:g=original	!	!	!	!LO:LB:g=original	!	!	!	!	!	!	!	!	!
8A\L	.	4r	.	4r	.	8A\	di-	8r	.	8r	.	4r	.
8A\J	6	.	.	.	.	8A\	-xit	8F/L	.	8F/L	.	.	.
[<4A\	.	8r	.	8r	.	4A\	Je-	8F/	.	8F/	.	8r	.
.	.	8c/	.	8f/	.	.	.	8F/J	.	8F/J	.	8ff\	.
!	!	!LO:LB:g=original	!	!	!	!	!	!	!LO:LB:g=original	!	!	!LO:LB:g=original	!
=6	=6	=6	=6	=6	=6	=6	=6	=6	=6	=6	=6	=6	=6
8A\L]	.	8f/L	.	8a\L	.	8A\	-sus	8F/L	.	4F/	.	8a\L	.
8A\J	.	8a/J	.	8cc\J	.	8A\	di-	8F/	.	.	.	8cc\J	.
8A\L	.	8cc\L	.	8ff\L	.	8A\	.	8F/	.	8F/L	.	8ff\L	.
16G\L	.	16b-\L	.	8ff\J	.	16G\	-sci-	8F/J	.	8F/J	.	8ff\J	.
16F\JJ	.	16a\JJ	.	.	.	16F\	-pu-	.	.	.	.	.	.
8B-\L	.	4dd\	.	4ff\	.	8B-\	-lis	4F/	.	4F/	.	4ff\	.
8B-\J	.	.	.	.	.	8B-\	suiſ	.	.	.	.	.	.
4r	.	(>16dd\LL	.	(>16ff\LL	.	4r	.	4r	.	4r	.	16ff\LL	.
.	.	16cc\	.	16ee-X\)	.	.	.	.	.	.	.	16ee-X\	.
.	.	16cc\)	.	(16ee-\	.	.	.	.	.	.	.	16ee-\	.
.	.	16b-\JJ	.	16dd\JJ)	.	.	.	.	.	.	.	16dd\JJ	.
!	!	!	!	!	!	!	!	!LO:LB:g=original	!	!	!	!	!
=7	=7	=7	=7	=7	=7	=7	=7	=7	=7	=7	=7	=7	=7
!	!	!	!	!	!LO:HP:a:i:t=piano	!	!	!	!	!	!	!	!
!	!	!	!	!LO:TX:a:t=P:problem=mixed beam	!LO:DY:a	!LO:TX:i:a:t=Solo	!	!LO:TX:a:t=3	!	!	!	!	!
8BB-/L	.	16b-/KL	.	16dd\KL	p	8B-\	Sci-	0r	.	0r	.	16dd\KL	.
.	.	8d/	.	8f/	.	.	.	.	.	.	.	8ff\	.
8BB-/	.	.	.	.	.	8B-\	-tis	.	.	.	.	.	.
.	.	8d/	.	8f/	.	.	.	.	.	.	.	8ff\	.
8BB-/	.	.	.	.	.	16r	.	.	.	.	.	.	.
.	.	8d/	.	8f/	.	16F\	qui-	.	.	.	.	8ff\	.
8BB-/J	.	.	.	.	.	16F\	-a	.	.	.	.	.	.
.	.	16d/Jk	.	16f/Jk	.	16F\	poſt	.	.	.	.	16ff\Jk	.
!LO:TX:a:t=P:problem=mixed beam	!	!	!	!	!	!	!	!	!	!	!	!	!
!	!	!	!	!	!	!LO:LB:g=original	!	!	!	!	!	!	!
8BB-/L	.	8d/L	.	8f/L	.	8B-\	bi-	.	.	.	.	8ff\L	.
8B-\	.	8d/	.	8f/	.	16B-\	-de-	.	.	.	.	8ff\	.
.	.	.	.	.	.	16B-\	-um	.	.	.	.	.	.
.	.	.	.	.	.	16qqc/LL	.	.	.	.	.	.	.
.	.	.	.	.	.	16qqd/JJ	.	.	.	.	.	.	.
8G\	.	8g/	.	8b-/	.	8e-X\	Pa-	.	.	.	.	8bb-\	.
8A\J	.	8f/J	.	8cc/J	.	8e-\	-sha	.	.	.	.	8ccc\J	.
=8	=8	=8	=8	=8	=8	=8	=8	=8	=8	=8	=8	=8	=8
!	!	!LO:TX:a:t=P:problem=mixed beam	!	!LO:TX:a:t=P:problem=mixed beam	!	!	!	!	!	!	!	!LO:TX:a:t=P:problem=mixed beam	!
4B-\	.	8B-/L	.	8f`>/L	.	8d\	fiet	.	.	.	.	8f/L	.
.	.	(>8dd\	.	(>8ff\	.	8d\	.	.	.	.	.	8ff\	.
8r	.	8cc\	.	8ee-X\	.	8r	.	.	.	.	.	8ee-X\	.
!	!	!	!	!	!	!LO:SIC:t=nieczytelny tekst	!	!	!	!	!	!	!
!	!	!	!	!	!	!LO:SIC:s=et	!	!	!	!	!	!	!
8B-\	.	8b-\J)	.	8dd\J)	.	8d\	et	.	.	.	.	8dd\J	.
8A\L	.	8a\L	.	8cc\	.	8c\	fi-	.	.	.	.	8cc\	.
8A\	.	8cc\	.	4ff\	.	16F\	-li-	.	.	.	.	4ff\	.
.	.	.	.	.	.	16F\	-us	.	.	.	.	.	.
8G\	7	8b-\	.	.	.	16B-\	ho-	.	.	.	.	.	.
.	.	.	.	.	.	16B-\	-mi-	.	.	.	.	.	.
8G\J	6	8cc\J	.	8een\	.	16B-\	-nis	.	.	.	.	8een\	.
.	.	.	.	.	.	16B-\	tra-	.	.	.	.	.	.
=9	=9	=9	=9	=9	=9	=9	=9	=9	=9	=9	=9	=9	=9
.	.	.	.	.	.	8qqB-/	.	.	.	.	.	.	.
4F\	.	8a/L	.	8ff`>\L	.	8A\	-de-	1r	.	1r	.	8ff\L	.
.	.	(<8a/	.	(>8cc\	.	8A\	-tur	.	.	.	.	8ccc\	.
8r	.	8g/	.	8b-\	.	8r	.	.	.	.	.	8bb-\	.
!LO:TX:a:t=P:problem=złe wyświetlanie	!	!	!	!	!	!	!	!	!	!	!	!	!
8AA/	6	8f/J)	.	8a\J)	.	8c\	ut	.	.	.	.	8aa\J	.
8BB-/L	5	8f/L	.	8g/L	.	4d\	Cru-	.	.	.	.	8gg\L	.
8BB-/	.	8f/	.	8g/	.	.	.	.	.	.	.	8gg\	.
8BBn/	.	8f/	.	8g/	.	8d\	-ci-	.	.	.	.	8gg\	.
8BB/J	.	8f/J	.	8g/J	.	8d\	-fi-	.	.	.	.	8gg\J	.
*	*	*	*	*	*	*custos:E	*	*	*	*	*	*	*
!LO:LB:g=original	!	!	!	!LO:LB:g=original	!	!LO:LB:g=original	!	!	!	!	!	!	!
=10	=10	=10	=10	=10	=10	=10	=10	=10	=10	=10	=10	=10	=10
!	!	!	!	!	!LO:HP:a:i:t=Fr:	!	!	!	!	!	!	!	!
!	!	!	!	!LO:TX:a:t=P:problem=mixed beam	!	!	!	!	!	!	!	!LO:TX:a:t=P:problem=mixed beam	!
.	.	.	.	.	.	8qqF/	.	.	.	.	.	.	.
!	!	!LO:TX:a:t=P:problem=mixed beam	!	!	!LO:DY:a	!	!	!	!	!	!	!	!
4C/	.	8e/L	.	8g/L	f	8E\	-ga-	2rg	.	2rg	.	8g/L	.
!LO:TX:i:a:t=Tutti	!	!	!	!	!	!	!	!	!	!	!	!	!
.	.	8ee\J	.	8gg\J	.	8E\	-tur	.	.	.	.	8gg\J	.
4E\	.	(>16ee\LL	.	(>16gg\LL	.	4r	.	.	.	.	.	(>16gg\LL	.
.	.	16dd\)	.	16ff\)	.	.	.	.	.	.	.	16ff\)	.
.	.	(>16dd\	.	(>16ff\	.	.	.	.	.	.	.	(>16ff\	.
.	.	16cc\JJ)	.	16ee\JJ)	.	.	.	.	.	.	.	16ee\JJ)	.
!	!	!LO:LB:g=original	!	!	!	!	!	!	!	!	!	!	!
8r	.	4cc\	.	4ee\	.	16r	.	8r	.	8r	.	4ee\	.
.	.	.	.	.	.	16c\	Tunc	.	.	.	.	.	.
8c\L	.	.	.	.	.	16c\	con-	8c/L	.	8g\L	.	.	.
.	.	.	.	.	.	16c\	-gre-	.	.	.	.	.	.
8c\	.	8r	.	8r	.	16.c\	-ga-	8c/	.	8g\	.	8r	.
.	.	.	.	.	.	32c\	-ti	.	.	.	.	.	.
8c\J	.	8ee\	.	8gg\	.	8c\	sunt	8c/J	.	8g\J	.	8gg\	.
!	!	!	!	!	!	!	!	!	!	!	!	!LO:LB:g=original	!
=11	=11	=11	=11	=11	=11	=11	=11	=11	=11	=11	=11	=11	=11
8c\L	.	8ee\L	.	8gg\L	.	8c\	Prin-	4c/	.	4g\	.	8gg\L	.
8c\	.	8ee\	.	8gg\	.	16c\	-ci-	.	.	.	.	8gg\	.
.	.	.	.	.	.	16c\	-pes	.	.	.	.	.	.
8c\	.	8ee\	.	8gg\	.	8c\	sacer-	8r	.	8r	.	8gg\	.
8c\J	.	8ee\J	.	8gg\J	.	8c\	-do-	8c/	.	8g\	.	8gg\J	.
8E\L	.	8cc\L	.	8bb-\L	.	4E\	-tum	4g\	.	4b-\	.	8bb-\L	.
8E\	.	8cc\	.	8bb-\	.	.	.	.	.	.	.	8bb-\	.
8E\	.	8cc\	.	8bb-\	.	8E\	.	4g\	.	4b-\	.	8bb-\	.
!	!	!	!	!	!	!LO:SIC:t=nieczytelny tekst	!	!	!	!	!	!	!
!	!	!	!	!	!	!LO:SIC:s=et	!	!	!	!	!	!	!
8E\J	.	8cc\J	.	8bb-\J	.	8E\	et	.	.	.	.	8bb-\J	.
=12	=12	=12	=12	=12	=12	=12	=12	=12	=12	=12	=12	=12	=12
8E\L	.	4cc\	.	4bb-\	.	8E\	se-	8r	.	8r	.	4bb-\	.
8G\	.	.	.	.	.	8E\	-nio-	8g\L	.	8b-\L	.	.	.
8E\	.	8r	.	8r	.	8.E\	-res	8g\	.	8b-\	.	8r	.
8C\J	.	8ee\	.	8gg\	.	.	.	8g\J	.	8b-\J	.	8gg\	.
.	.	.	.	.	.	16E\	.	.	.	.	.	.	.
*	*	*	*	*	*	*custos:F	*	*	*	*	*	*	*
!	!	!	!	!LO:TX:a:t=P:problem=mixed beam	!	!	!	!	!	!	!	!LO:TX:a:t=P:problem=mixed beam	!
!	!	!	!	!	!	!LO:LB:g=original	!	!	!	!	!	!	!
4F\	.	8cc/L	.	8aa\L	.	16F\	po-	8f\L	.	8a\L	.	8aa\L	.
.	.	.	.	.	.	16F\	-pu-	.	.	.	.	.	.
.	.	8a/J	.	8cc/J	.	8F\	-li	8a\J	.	8cc\J	.	8cc/J	.
!	!	!	!	!	!	!	!	!LO:TX:a:t=P:problem=niejednoznaczne łuki	!	!	!	!	!
8r	.	16a/LL	.	(<16cc/LL	.	8r	.	(>16a\LL	.	16cc\LL	.	16cc/LL	.
.	.	[<16g/	.	16b-/)	.	.	.	16g\)	.	16b-\	.	16b-/	.
8F\	.	(<16g/]	.	(<16b-/	.	16F\	et	(>16g\	.	16b-\	.	16b-/	.
.	.	16f/JJ)	.	16a/JJ)	.	16F\	con-	16f\JJ)	.	16a\JJ	.	16a/JJ	.
=13	=13	=13	=13	=13	=13	=13	=13	=13	=13	=13	=13	=13	=13
8F\L	.	4f/	.	4a/	.	8.F\	-si-	4f\	.	4a\	.	4aa\	.
8F\J	.	.	.	.	.	.	.	.	.	.	.	.	.
.	.	.	.	.	.	16F\	-li-	.	.	.	.	.	.
8F\L	.	4r	.	4r	.	8F\	-um	4r	.	4r	.	4r	.
16G\L	.	.	.	.	.	16G\LL	fe-	.	.	.	.	.	.
16A\JJ	.	.	.	.	.	16A\JJ	.	.	.	.	.	.	.
8B-X\L	.	8r	.	8r	.	8B-\	-ce-	2rg	.	2r	.	8r	.
8B-\J	.	(>8dd-X\L	.	(>8ff\L	.	8B-\	-runt	.	.	.	.	8ff\L	.
8r	.	8cc\	.	8ee-X\	.	8r	.	.	.	.	.	8ee-X\	.
8F\	-6 4	8b-\J)	.	8dd-X\J)	.	8B-\	ut	.	.	.	.	8dd-X\J	.
!	!	!	!	!LO:LB:g=original	!	!	!	!	!	!	!	!	!
=14	=14	=14	=14	=14	=14	=14	=14	=14	=14	=14	=14	=14	=14
!	!	!	!LO:HP:a:i:t=piano:	!	!LO:HP:a:i:t=pia:	!	!	!	!	!	!	!	!LO:HP:a:i:t=pia
!	!	!	!LO:DY:a	!LO:TX:a:t=P:problem=mixed beam	!LO:DY:a	!	!	!	!	!	!	!	!LO:DY:a
8F\L	:	8b-/L	p	8dd\L	p	4B-\	Je-	1r	.	1r	.	8dd\L	p
8F\	n	8f/	.	8f/	.	.	.	.	.	.	.	8ff\	.
8F\	.	8f/	.	8f/	.	4A\	-sum	.	.	.	.	8ff\	.
!	!	!	!	!	!	!	!	!LO:TX:a:t=1.	!	!	!	!	!
8F\J	.	8f/J	.	8f/J	.	.	.	.	.	.	.	8ff\J	.
8En\L	.	8en/L	.	8en/L	.	8B-\	.	.	.	.	.	8een\L	.
8E\	-7	8e/	.	8e/J	.	16A\	do-	.	.	.	.	8ee\J	.
.	.	.	.	.	.	16G\	-lo	.	.	.	.	.	.
8F\	.	8f/	.	8f/L	.	8F\	tene-	.	.	.	.	8ff\L	.
8F\J	.	8a/J	.	8cc/J	.	8F\	-runt	.	.	.	.	8ccc\J	.
*	*	*	*	*	*	*custos:F	*	*	*	*	*	*	*
!LO:LB:g=original	!	!LO:LB:g=original	!	!	!	!LO:LB:g=original	!	!	!	!LO:LB:g=original	!	!	!
=15	=15	=15	=15	=15	=15	=15	=15	=15	=15	=15	=15	=15	=15
!	!	!	!LO:DY:a	!	!LO:DY:a	!	!	!	!	!	!	!	!LO:DY:a
!	!	!	!LO:HP:a:i:t=For:	!	!LO:HP:a:i:t=Fr:	!	!	!	!	!	!	!	!
8r	.	8a/L	f	8ff\	f	16r	.	8r	.	8r	.	8ff\	f
.	.	.	.	.	.	16F\	et	.	.	.	.	.	.
8F\L	-7	8c/J	.	4ee-X\	.	16F\	oc-	16F/LL	.	16F/LL	.	4ee-X\	.
.	.	.	.	.	.	16F\	-ci-	16F/JJ	.	16F/JJ	.	.	.
8F\	.	8c/L	.	.	.	8.F\	-de-	8F/L	.	8F/L	.	.	.
.	.	.	.	8qqdd/	.	.	.	.	.	.	.	.	.
.	.	.	.	.	.	.	.	.	.	.	.	8qqdd	.
8F\J	.	8a/J	.	8cc\	.	.	.	8F/J	.	8F/J	.	8cc\	.
.	.	.	.	.	.	16F\	-rent	.	.	.	.	.	.
4BB-/	.	4f/	.	8b-/L	.	8BB-/	.	4F/	.	4F/	.	8bb-\L	.
.	.	.	.	8f/J	.	8BB-/	cum	.	.	.	.	8ff\J	.
8G\L	6 -	4r	.	16b-`>\LL	.	4r	.	4r	.	4r	.	16b-\LL	.
.	5 3	.	.	(>16ee-X\	.	.	.	.	.	.	.	16ee-X\	.
8A\J	.	.	.	16dd\	.	.	.	.	.	.	.	16dd\	.
.	.	.	.	16cc\JJ)	.	.	.	.	.	.	.	16cc\JJ	.
!	!	!	!	!	!	!	!	!	!	!	!	!LO:LB:g=original	!
!	!	!	!	!	!	!	!	!LO:LB:g=original	!	!	!	!	!
=16	=16	=16	=16	=16	=16	=16	=16	=16	=16	=16	=16	=16	=16
!	!	!	!	!	!	!LO:TX:a:t=7	!	!	!	!	!	!	!
4B-\	.	8r	.	8dd`>\L	.	00r	.	1r	.	1r	.	8dd\L	.
.	.	8b-\	.	8dd`>\J	.	.	.	.	.	.	.	8dd\J	.
8E-X\L	.	(>16cc\LL	.	(>16ee-X\LL	.	.	.	.	.	.	.	16ee-X\LL	.
.	.	16ee-X\)	.	16gg\)	.	.	.	.	.	.	.	16gg\	.
8F\J	.	(>16dd\	.	(>16ff\	.	.	.	.	.	.	.	16ff\	.
!	!	!	!	!	!	!	!	!LO:TX:a:t=1.	!	!	!	!	!
.	.	16cc\JJ)	.	16ee-\JJ)	.	.	.	.	.	.	.	16ee-\JJ	.
4BB-/	.	16dd\KL	.	16ff\KL	.	.	.	.	.	.	.	16ff\KL	.
.	.	8dd\	.	8bb-\	.	.	.	.	.	.	.	8bb-\	.
.	.	16cc\Jk	.	16aa\Jk	.	.	.	.	.	.	.	16aa\Jk	.
8r	.	16dd\KL	.	16bb-\KL	.	.	.	.	.	.	.	16bb-\KL	.
.	.	8b-\	.	8ff\	.	.	.	.	.	.	.	8ff\	.
8F\	6 4	.	.	.	.	.	.	.	.	.	.	.	.
.	5 3	16a\Jk	.	16ee-\Jk	.	.	.	.	.	.	.	16ee-\Jk	.
*	*	*	*	*custos:dd	*	*	*	*	*	*	*	*	*
!	!	!	!	!LO:LB:g=original	!	!	!	!	!	!	!	!	!
=17	=17	=17	=17	=17	=17	=17	=17	=17	=17	=17	=17	=17	=17
8B-\L	.	8b-/L	.	8dd\L	.	.	.	8r	.	8r	.	8dd\L	.
8E-X\J	.	16f/L	.	16cc\L	.	.	.	16F/LL	.	16F/LL	.	16cc\L	.
.	.	16g/JJ	.	16b-\JJ	.	.	.	16F/JJ	.	16F/JJ	.	16b-\JJ	.
!LO:TX:a:t=P:problem=mixed beam	!	!	!	!	!	!	!	!	!	!	!	!	!
!	!	!	!	!	!	!	!	!	!	!	!	!LO:SIC:v=znak nad nutą - zanotowane jako tryl	!
8F\L	.	4at>/	.	4ccT>\	.	.	.	8F/L	.	8F/L	.	4cccT>\	.
8FF/J	.	.	.	.	.	.	.	8F/J	.	8F/J	.	.	.
4BB-/	.	4b-/	.	4b-\	.	.	.	4F/	.	4F/	.	4bb-\	.
4r	.	4r	.	4r	.	.	.	4r	.	4r	.	4r	.
=18	=18	=18	=18	=18	=18	=18	=18	=18	=18	=18	=18	=18	=18
4BB-/	.	8r	.	8r	.	.	.	0r	.	0r	.	8r	.
.	.	8d/	.	8f/	.	.	.	.	.	.	.	8ff\	.
8r	.	16d/LL	.	(>16b-\LL	.	.	.	.	.	.	.	16b-\LL	.
.	.	16g/	.	16ee-X\)	.	.	.	.	.	.	.	16ee-X\	.
8FF/	.	16f/	.	(>16dd\	.	.	.	.	.	.	.	16dd\	.
.	.	16e-X/JJ	.	16cc\JJ)	.	.	.	.	.	.	.	16cc\JJ	.
4BB-/	.	8d/L	.	4b-/	.	.	.	.	.	.	.	4b-/	.
.	.	8d/J	.	.	.	.	.	.	.	.	.	.	.
*	*	*custos:c	*	*	*	*	*	*	*	*	*	*	*
!	!	!LO:LB:g=original	!	!	!	!	!	!	!	!	!	!	!
8E-X\L	.	16c/LL	.	8r	.	.	.	.	.	.	.	8r	.
.	.	(<16e-X/	.	.	.	.	.	.	.	.	.	.	.
8F\J	.	16d/	.	8f/	.	.	.	.	.	.	.	8ff\	.
.	.	16c/JJ)	.	.	.	.	.	.	.	.	.	.	.
=19	=19	=19	=19	=19	=19	=19	=19	=19	=19	=19	=19	=19	=19
!LO:TX:a:t=P:problem=mixed beam	!	!	!	!LO:TX:a:t=P:problem=mixed beam	!LO:DY:a	!	!	!	!	!	!	!	!LO:DY:a:rj
!	!	!	!	!	!LO:HP:a:i:t=pia:	!	!	!	!	!	!	!LO:TX:a:t=P:problem=mixed beam	!LO:HP:a:i:t=Forte
8BB-/L	.	8B-/L	.	8f/L	p	.	.	.	.	.	.	8f/L	f
8B-\	.	8f/	.	8dd\	.	.	.	.	.	.	.	8dd\	.
8B-\	.	8f/	.	8dd\	.	.	.	.	.	.	.	8dd\	.
8B-\J	.	8f/J	.	8dd\J	.	.	.	.	.	.	.	8dd\J	.
8A\L	.	8f/L	.	8cc\	.	.	.	.	.	.	.	8cc\	.
8F\	.	8a/	.	4cc\	.	.	.	.	.	.	.	4cc\	.
8En\	.	8g/	.	.	.	.	.	.	.	.	.	.	.
8C\J	.	8e/J	.	8b-\	.	.	.	.	.	.	.	8b-\	.
!LO:LB:g=original	!	!	!	!	!	!	!	!	!	!	!	!	!
=20	=20	=20	=20	=20	=20	=20	=20	=20	=20	=20	=20	=20	=20
!	!	!	!	!	!	!LO:N:vis=0	!	!	!	!	!	!	!
4F\	.	4c/	.	4a/	.	0r	.	2rg	.	2rg	.	4aa\	.
!LO:TX:a:t=P:problem=mixed beam	!	!	!	!	!	!	!	!	!	!	!	!	!
8C\L	.	4e/	.	4gT>/	.	.	.	.	.	.	.	4gg\	.
8CC/J	.	.	.	.	.	.	.	.	.	.	.	.	.
!	!	!	!	!LO:TX:a:t=P:problem=mixed beam	!	!	!	!	!	!	!	!LO:TX:a:t=P:problem=mixed beam	!
4FF/	.	8c/L	.	8f/L	.	.	.	8r	.	8r	.	8f/L	.
.	.	[>8a/J	.	8cc\J	.	.	.	8c/	.	8g\	.	8cc\J	.
4r	.	16a\LL]	.	(>16ff\LL	.	.	.	16f\LL	.	16a\LL	.	16ff\LL	.
.	.	(>16dd\	.	16bb-\	.	.	.	16b-\	.	16dd\	.	16bb-\	.
.	.	16cc\	.	16aa\	.	.	.	16a\	.	16cc\	.	16aa\	.
.	.	16b-\JJ)	.	16gg\JJ)	.	.	.	16g\JJ	.	16b-\JJ	.	16gg\JJ	.
!	!	!	!	!LO:LB:g=original	!	!	!	!	!	!	!	!LO:LB:g=original	!
=21	=21	=21	=21	=21	=21	=21	=21	=21	=21	=21	=21	=21	=21
.	.	.	.	.	.	.	.	8qqg/	.	8qqb-/	.	.	.
!LO:TX:a:t=P:problem=mixed beam	!	!	!	!	!	!	!	!	!	!	!	!	!
8FF/L	.	4a/	.	4ff\	.	.	.	4f\	.	4a\	.	4ff\	.
8F\	.	.	.	.	.	.	.	.	.	.	.	.	.
8En\	.	4r	.	4r	.	.	.	4r	.	4r	.	4r	.
8C\J	.	.	.	.	.	.	.	.	.	.	.	.	.
4F\	.	2rg	.	8ff\L	.	.	.	2rg	.	2rg	.	8ff\L	.
.	.	.	.	[>8cc\J	.	.	.	.	.	.	.	8cc\J	.
4r	.	.	.	8.cc\L]	.	.	.	.	.	.	.	8.cc\L	.
.	.	.	.	16b-\Jk	.	.	.	.	.	.	.	16b-\Jk	.
=22	=22	=22	=22	=22	=22	=22	=22	=22	=22	=22	=22	=22	=22
4F\	.	4r	.	8.a/L	.	1r	.	1r	.	1r	.	8.a/L	.
.	.	.	.	16b-/Jk	.	.	.	.	.	.	.	16b-/Jk	.
8r	.	8r	.	8cc/L	.	.	.	.	.	.	.	8cc\L	.
8F\	.	8c/	.	8f/J	.	.	.	.	.	.	.	8ff\J	.
!LO:TX:a:t=P:problem=mixed beam	!	!	!	!	!	!	!	!LO:TX:a:t=1	!	!	!	!	!
8F\L	6 5	8c/	.	4a/	.	.	.	.	.	.	.	4aa\	.
8AA/	.	8r	.	.	.	.	.	.	.	.	.	.	.
8AA/	.	8f/	.	4r	.	.	.	.	.	.	.	4r	.
8AA/J	.	8r	.	.	.	.	.	.	.	.	.	.	.
=23	=23	=23	=23	=23	=23	=23	=23	=23	=23	=23	=23	=23	=23
4BB-/	.	8b-/L	.	8r	.	4r	.	8r	.	8r	.	8r	.
.	.	8d/J	.	8f/	.	.	.	16f\LL	.	16f\LL	.	8ff\	.
.	.	.	.	.	.	.	.	16f\JJ	.	16f\JJ	.	.	.
8r	.	16d/LL	.	(>16b-\LL	.	8r	.	8f\L	.	8f\L	.	16b-\LL	.
.	.	16e-X/	.	16gg\)	.	.	.	.	.	.	.	16gg\	.
8FF/	.	16d/	.	(>16ff\	.	8B-\	Quid	8f\J	.	8f\J	.	16ff\	.
.	.	16c/JJ	.	16ee-X\JJ)	.	.	.	.	.	.	.	16ee-X\JJ	.
!	!	!LO:LB:g=original	!	!	!	!	!	!	!	!	!	!	!
8BB-/L	.	4B-/	.	4dd\	.	8B-\	vul-	4f\	.	4f\	.	4dd\	.
8C/	.	.	.	.	.	8B-\	-tis	.	.	.	.	.	.
8D/	.	4r	.	4r	.	8B-\	mi-	4r	.	4r	.	4r	.
8E-X/J	.	.	.	.	.	8B-\	-hi	.	.	.	.	.	.
!	!	!	!	!	!	!	!	!LO:LB:g=original	!	!LO:LB:g=original	!	!	!
=24	=24	=24	=24	=24	=24	=24	=24	=24	=24	=24	=24	=24	=24
!	!	!	!	!	!	!	!	!LO:TX:a:t=4	!	!	!	!	!
8F\L	.	1r	.	1r	.	8A\	da-	00r	.	00r	.	1r	.
16F\L	.	.	.	.	.	8F\	-re	.	.	.	.	.	.
16E-X\JJ	.	.	.	.	.	.	.	.	.	.	.	.	.
8D\L	.	.	.	.	.	16r	.	.	.	.	.	.	.
!	!	!	!	!LO:TX:a:t=1&colon;	!	!	!	!	!	!	!	!	!
.	.	.	.	.	.	16F\	et	.	.	.	.	.	.
!	!	!LO:TX:a:t=1.	!	!	!	!	!	!	!	!	!	!LO:TX:a:t=1	!
8BB-\J	.	.	.	.	.	16F\	e-	.	.	.	.	.	.
.	.	.	.	.	.	16F\	-go	.	.	.	.	.	.
!LO:TX:a:t=P:problem=mixed beam	!	!	!	!	!	!LO:LB:g=original	!	!	!	!	!	!	!
8E-\L	.	.	.	.	.	8G\	vo-	.	.	.	.	.	.
8C\	.	.	.	.	.	8G\	-bis	.	.	.	.	.	.
8F\	.	.	.	.	.	8.A\	tra-	.	.	.	.	.	.
8FF/J	.	.	.	.	.	.	.	.	.	.	.	.	.
.	.	.	.	.	.	16A\	-dam	.	.	.	.	.	.
!LO:LB:g=original	!	!	!	!	!	!	!	!	!	!	!	!	!
=25	=25	=25	=25	=25	=25	=25	=25	=25	=25	=25	=25	=25	=25
4BB-/	.	4r	.	4r	.	8B-\	e-	.	.	.	.	4r	.
.	.	.	.	.	.	8B-\	-um	.	.	.	.	.	.
8r	.	8r	.	8r	.	8r	.	.	.	.	.	8r	.
8G\	.	8bb-\	.	8bb-\	.	8G\	at	.	.	.	.	8bb-\	.
8F#X\L	.	4dd\	.	8aa\L	.	8F#X\	il-	.	.	.	.	8aa\L	.
16F#\L	.	.	.	16aa\L	.	16F#\	-li	.	.	.	.	16aa\L	.
16F#\JJ	.	.	.	16aa\JJ	.	16F#\	con-	.	.	.	.	16aa\JJ	.
*	*	*	*	*custos:aa	*	*	*	*	*	*	*	*	*
!	!	!	!	!LO:LB:g=original	!	!	!	!	!	!	!	!	!
16F#\LL	.	8r	.	16aa\LL	.	16F#\	-sti-	.	.	.	.	16aa\LL	.
16D\	.	.	.	16ff#X\	.	16D\	-tu-	.	.	.	.	16ff#X\	.
16En\	.	8dd\	.	16gg\	.	16En\	-e-	.	.	.	.	16gg\	.
16F#X\JJ	.	.	.	16aa\JJ	.	16F#X\	-runt	.	.	.	.	16aa\JJ	.
=26	=26	=26	=26	=26	=26	=26	=26	=26	=26	=26	=26	=26	=26
8G\L	.	8dd\L	.	8bb-\L	.	8G\	e-	.	.	.	.	8bb-\L	.
16G\L	.	16dd\L	.	16bb-\L	.	16G\	-i	.	.	.	.	16bb-\L	.
16G\JJ	.	16b-\JJ	.	16dd\JJ	.	16G\	tri-	.	.	.	.	16dd\JJ	.
8c\L	6	8.g/L	.	8ee-X\L	.	8c\	-gin-	.	.	.	.	8ee-X\L	.
16B-\L	.	.	.	16dd\L	.	16B-\	-ta	.	.	.	.	16dd\L	.
16A\JJ	.	16cc/Jk	.	16gg\JJ	.	16A\	.	.	.	.	.	16gg\JJ	.
!	!	!	!	!	!	!	!	!	!	!	!	!LO:LB:g=original	!
!	!	!	!	!	!	!	!	!	!	!	!	!LO:SIC:v=znak przed nutą - zanotowane jako krzyżyk	!
8d\L	.	8a/L	.	8ff#X\L	.	16d\	ar-	.	.	.	.	8ff#X\L	.
.	.	.	.	.	.	16d\	-gen-	.	.	.	.	.	.
8d\J	.	8a/J	.	8ff#\J	.	8d\	-teoſ	.	.	.	.	8ff#\J	.
8r	.	8r	.	8r	.	8r	.	.	.	.	.	8r	.
8d\	#	8ff#X\	.	8aa\	.	16d\	de-	.	.	.	.	8aa\	.
.	.	.	.	.	.	16d\	-dit	.	.	.	.	.	.
!	!	!	!	!	!	!LO:LB:g=original	!	!	!	!	!	!	!
=27	=27	=27	=27	=27	=27	=27	=27	=27	=27	=27	=27	=27	=27
8F#X\L	6	8dd\L	.	8aa\L	.	8F#X\	e is	.	.	.	.	8aa\L	.
8F#\	.	8dd\	.	8aa\	.	8F#\	.	.	.	.	.	8aa\	.
8F#\	.	8dd\	.	8aa\	.	8F#\	er-	.	.	.	.	8aa\	.
8F#\J	.	8dd\J	.	8aa\J	.	8F#\	-go	.	.	.	.	8aa\J	.
4.G\	-	8dd\L	.	8bb-\L	.	4G\	Sig-	.	.	.	.	8bb-\L	.
.	.	8dd\	.	8bb-\	.	.	.	.	.	.	.	8bb-\	.
.	.	8dd\	.	8bb-\	.	4En\	-num	.	.	.	.	8bb-\	.
8En\	5	8gg\J	.	8bb-\J	.	.	.	.	.	.	.	8bb-\J	.
=28	=28	=28	=28	=28	=28	=28	=28	=28	=28	=28	=28	=28	=28
!	!	!LO:TX:a:t=P:problem=mixed beam	!	!LO:TX:a:t=P:problem=mixed beam	!	!	!	!	!	!	!	!LO:TX:a:t=P:problem=mixed beam	!
4A\	#	8cc#X\L	.	8een\L	.	8A\	di-	4A/	.	4A/	.	8een\L	.
.	.	8e/J	.	8a/J	.	8A\	-cenſ	.	.	.	.	8a/J	.
8r	.	(<16f/LL	.	16dd\LL	.	4r	.	8r	.	8r	.	16dd\LL	.
.	.	16b-/	.	(>16gg\	.	.	.	.	.	.	.	16gg\	.
8A\	.	16a/	.	(>16ff\)	.	.	.	8A/	.	8A/	.	16ff\	.
.	.	16g/JJ)	.	16een\JJ)	.	.	.	.	.	.	.	16een\JJ	.
!	!	!LO:LB:g=original	!	!	!	!	!	!	!	!	!	!	!
!	!	!LO:TX:a:t=P:problem=mixed beam	!	!	!	!	!	!	!	!	!	!	!
4d\	.	8f/L	.	8ff\L	.	2rBB	.	4A/	.	4A/	.	8ff\L	.
.	.	8dd\J	.	8ff\J	.	.	.	.	.	.	.	8ff\J	.
8G\L	6 4	(>16een\LL	.	(>16gg\LL	.	.	.	4r	.	4r	.	16gg\LL	.
.	.	16gg\)	.	16bb-\)	.	.	.	.	.	.	.	16bb-\	.
8A\J	5 #	(>16ff\	.	(>16aa\	.	.	.	.	.	.	.	16aa\	.
.	.	16ee\JJ)	.	16gg\JJ)	.	.	.	.	.	.	.	16gg\JJ	.
*	*	*	*	*custos:aa	*	*	*	*	*	*	*	*	*
!LO:LB:g=original	!	!	!	!LO:LB:g=original	!	!	!	!	!	!	!	!	!
=29	=29	=29	=29	=29	=29	=29	=29	=29	=29	=29	=29	=29	=29
4D/	.	16ff\KL	.	16aa\KL	.	1r	.	2rg	.	2rg	.	16aa\KL	.
.	.	8ff\	.	8ddd\	.	.	.	.	.	.	.	8ddd\	.
.	.	16een\Jk	.	16ccc#X\Jk	.	.	.	.	.	.	.	16ccc#X\Jk	.
8r	.	16ff\KL	.	16ddd\KL	.	.	.	.	.	.	.	16ddd\KL	.
.	.	8ff\	.	8aa\	.	.	.	.	.	.	.	8aa\	.
8A\	6 4	.	.	.	.	.	.	.	.	.	.	.	.
.	5 3	16een\Jk	.	16gg\Jk	.	.	.	.	.	.	.	16gg\Jk	.
!LO:TX:a:t=P:problem=mixed beam	!	!	!	!	!	!	!	!	!	!	!	!	!
.	.	.	.	16qqgg/	.	.	.	.	.	.	.	.	.
8d\L	.	4.dd\	.	8ff\L	.	.	.	8A/L	.	8A/L	.	8ff\L	.
8G\	.	.	.	16een\L	.	.	.	16A/L	.	16A/L	.	16een\L	.
.	.	.	.	16dd\JJ	.	.	.	16A/JJ	.	16A/JJ	.	16dd\JJ	.
!	!	!	!	!	!	!	!	!	!	!	!	!LO:SIC:v=znak nad nutą - zanotowane jako tryl	!
8A\	.	.	.	4eet>\	.	.	.	8A/L	.	8A/L	.	4eet>\	.
8AA/J	.	8cc#X\	.	.	.	.	.	8A/J	.	8A/J	.	.	.
=30	=30	=30	=30	=30	=30	=30	=30	=30	=30	=30	=30	=30	=30
4D/	.	4dd\	.	4dd\	.	8r	.	4A/	.	4A/	.	4dd\	.
.	.	.	.	.	.	8D/	Quem-	.	.	.	.	.	.
!	!	!	!	!	!	!LO:SIC:s=-cum-	!	!	!	!	!	!	!
8r	.	4r	.	4r	.	8D/	-cun-	4r	.	4r	.	4r	.
!	!	!	!	!	!	!LO:SIC:t="3" pod "q"	!	!	!	!	!	!	!
!	!	!	!	!	!	!LO:SIC:s=-que	!	!	!	!	!	!	!
8D/	.	.	.	.	.	8D/	-q	.	.	.	.	.	.
4D/	.	2rg	.	2rg	.	8F\	os-	2r	.	2rg	.	2rg	.
.	.	.	.	.	.	8F\	-cu-	.	.	.	.	.	.
4BB-/	6|	.	.	.	.	8F\	-la-	.	.	.	.	.	.
.	.	.	.	.	.	8G#X\	-tuſ	.	.	.	.	.	.
!	!	!	!	!	!	!LO:LB:g=original	!	!	!	!	!	!LO:LB:g=original	!
=31	=31	=31	=31	=31	=31	=31	=31	=31	=31	=31	=31	=31	=31
!	!	!	!	!	!	!	!	!LO:TX:a:t=5	!	!LO:TX:a:t=5	!	!	!
4AA/	#	8r	.	8r	.	16A\	fu-	00r	.	00r	.	8r	.
.	.	.	.	.	.	16A\	-e-	.	.	.	.	.	.
.	.	4cc#X\	.	8aa\L	.	8A\	-ro	.	.	.	.	8aa\L	.
4r	.	.	.	8ee\	.	4r	.	.	.	.	.	8ee\	.
.	.	8dd\	.	8ff\J	.	.	.	.	.	.	.	8ff\J	.
8r	.	8dd\L	.	8gg\L	.	16B-\	ip-	.	.	.	.	8gg\L	.
.	.	.	.	.	.	16B-\	-se	.	.	.	.	.	.
8G\L	5 3	8dd\	.	8gg\	.	8B-\	est	.	.	.	.	8gg\	.
8E\	6	8dd\	.	8gg\	.	8r	.	.	.	.	.	8gg\	.
8G\J	6	8dd\J	.	8gg\J	.	8B-\	te-	.	.	.	.	8gg\J	.
=32	=32	=32	=32	=32	=32	=32	=32	=32	=32	=32	=32	=32	=32
4A\	.	4cc#X\	.	4ee\	.	4.c#X\	-ne-	.	.	.	.	4ee\	.
4AA/	.	4r	.	4r	.	.	.	.	.	.	.	4r	.
.	.	.	.	.	.	8c#\	-te	.	.	.	.	.	.
8D`>\L	.	8r	.	8r	.	8d\	e-	.	.	.	.	8r	.
8d`>\	.	8dd`>\L	.	8dd`>\L	.	8A\	-um	.	.	.	.	8dd`>\L	.
8A`>\	.	8a`>\	.	8a`>\	.	8r	.	.	.	.	.	8aa`>\	.
!	!	!	!	!	!	!LO:SIC:t=nieczytelny tekst	!	!	!	!	!	!	!
!	!	!	!	!	!	!LO:SIC:s=et	!	!	!	!	!	!	!
8F`\J	.	8f`>\J	.	8f`>\J	.	8F\	et	.	.	.	.	8ff`>\J	.
!	!	!LO:LB:g=original	!	!LO:LB:g=original	!	!	!	!	!	!	!	!	!
=33	=33	=33	=33	=33	=33	=33	=33	=33	=33	=33	=33	=33	=33
4D/	.	4d/	.	4d/	.	8F\	cum	.	.	.	.	4dd\	.
.	.	.	.	.	.	8F\	ve-	.	.	.	.	.	.
!	!	!	!LO:HP:a:i:t=pia	!	!	!	!	!	!	!	!	!	!
!	!	!	!LO:DY:a	!	!	!	!	!	!	!	!	!	!
4r	.	4r	p	4r	.	8F\	-ni-	.	.	.	.	4r	.
.	.	.	.	.	.	16E\	-ſs-	.	.	.	.	.	.
.	.	.	.	.	.	16F\	-et ad	.	.	.	.	.	.
8r	.	8r	.	8r	.	4G\	JE-	.	.	.	.	8r	.
!	!	!	!	!	!LO:HP:a:i:t=pia	!	!	!	!	!	!	!	!
!	!	!	!	!	!LO:DY:a	!	!	!	!	!	!	!	!
8GG/L	.	8G/L	.	8G/L	p	.	.	.	.	.	.	8gg\L	.
8BB-/	.	8B-/	.	8B-/	.	4G\	-SUM	.	.	.	.	8bb-\	.
8GG/J	.	8G/J	.	8G/J	.	.	.	.	.	.	.	8gg\J	.
!	!	!	!	!	!	!LO:LB:g=original	!	!	!	!	!	!	!
=34	=34	=34	=34	=34	=34	=34	=34	=34	=34	=34	=34	=34	=34
8r	.	8r	.	8r	.	4F\	a-	.	.	.	.	8r	.
8D\L	.	8d/L	.	8d/L	.	.	.	.	.	.	.	8dd\L	.
8F\	.	8f/	.	8f/	.	4F\	-it	.	.	.	.	8ff\	.
8D\J	5 4	8d/J	.	8d/J	.	.	.	.	.	.	.	8dd\J	.
!LO:LB:g=original	!	!	!	!LO:TX:a:t=P:problem=mixed beam	!	!	!	!	!	!	!	!LO:TX:a:t=P:problem=mixed beam	!
4A\	#	4e/	.	8a/L	.	8F\	il-	.	.	.	.	8a/L	.
.	.	.	.	8aa\	.	8E\	-li	.	.	.	.	8aa\	.
4r	.	(>8cc#X\L	.	8ee\	.	4r	.	.	.	.	.	8ee\	.
.	.	8dd\J)	.	8ff\J	.	.	.	.	.	.	.	8ff\J	.
=35	=35	=35	=35	=35	=35	=35	=35	=35	=35	=35	=35	=35	=35
!	!	!LO:TX:a:t=P:problem=mixed beam	!	!LO:TX:a:t=P:problem=mixed beam	!	!	!	!	!	!	!	!	!
8r	.	8ee\L	.	8gg\L	.	4C#X/	A-	1r	.	1r	.	8gg\L	.
8AA/L	#7	8e/	.	8g/	.	.	.	.	.	.	.	8gg\	.
8C#X/	.	8e/	.	8g/	.	4AA/	-ve	.	.	.	.	8gg\	.
8AA/J	.	8e/J	.	8g/J	.	.	.	.	.	.	.	8gg\J	.
4D/	.	(<8e/L	.	8g/L	.	8D/	Rab-	.	.	.	.	8gg\L	.
.	.	8d/J)	.	8f/J	.	8D/	-bi	.	.	.	.	8ff\J	.
!	!	!	!	!	!	!	!	!	!	!	!	!LO:SIC:v=znak nad nutą - zanotowane jako tryl	!
4r	.	4d/	.	4fT>/	.	8r	.	.	.	.	.	4ffT>\	.
.	.	.	.	.	.	8D/	et	.	.	.	.	.	.
=36	=36	=36	=36	=36	=36	=36	=36	=36	=36	=36	=36	=36	=36
8r	.	2rg	.	2rg	.	8F\	os-	2rg	.	2rg	.	2rg	.
!LO:TX:a:t=P:problem=mixed beam	!	!	!	!	!	!	!	!	!	!	!	!	!
8D\L	.	.	.	.	.	8F\	-cu-	.	.	.	.	.	.
8A\	5 4	.	.	.	.	8A\	-la-	.	.	.	.	.	.
8AA/J	#	.	.	.	.	16A\	-tus	.	.	.	.	.	.
.	.	.	.	.	.	16A\	.	.	.	.	.	.	.
4D\	.	8r	.	8r	.	8D/	e-	4A/	.	4A/	.	8r	.
.	.	4f/	.	[>8dd\	.	8D/	-um	.	.	.	.	8dd\	.
8r	.	.	.	8dd\]L	.	4r	.	4r	.	4r	.	8dd\L	.
8A\	#	8e/	.	8cc#X\J	.	.	.	.	.	.	.	8cc#X\J	.
!	!	!	!	!	!	!	!	!	!	!	!	!LO:LB:g=original	!
=37	=37	=37	=37	=37	=37	=37	=37	=37	=37	=37	=37	=37	=37
!	!	!	!	!	!	!LO:TX:a:t=2	!	!	!	!	!	!	!
!	!	!	!	!	!	!LO:N:vis=0	!	!	!	!	!	!	!
4d\	.	8f/	.	8a/	.	0r	.	8r	.	8r	.	8aa\	.
.	.	4dd\	.	4ff\	.	.	.	8A/L	.	8A/L	.	4ff\	.
8r	.	.	.	.	.	.	.	8A/	.	8A/	.	.	.
8A\	#	8cc#X\	.	8ee\	.	.	.	8A/J	.	8A/J	.	8ee\	.
!	!	!	!	!LO:TX:a:t=P:problem=mixed beam	!	!	!	!	!	!	!	!LO:TX:a:t=P:problem=mixed beam	!
4D/	.	8r	.	8a/L	.	.	.	4A/	.	4A/	.	8a/L	.
.	.	8ff\	.	8aa\J	.	.	.	.	.	.	.	8aa\J	.
.	.	8qff/	.	16qqaa/	.	.	.	.	.	.	.	8qqaa/	.
8G\L	.	8ee\L	.	8gg\L	.	.	.	4r	.	4r	.	8gg\L	.
8A\J	#	16dd\L	.	16ff\L	.	.	.	.	.	.	.	16ff\L	.
.	.	16cc#X\JJ	.	16ee\JJ	.	.	.	.	.	.	.	16ee\JJ	.
!	!	!LO:LB:g=original	!	!LO:LB:g=original	!	!	!	!	!	!	!	!	!
!	!	!	!	!	!	!	!	!LO:LB:g=original	!	!	!	!	!
=38	=38	=38	=38	=38	=38	=38	=38	=38	=38	=38	=38	=38	=38
*	*	*	*	*Xtuplet	*	*	*	*	*	*	*	*Xtuplet	*
!LO:TX:a:t=P:problem=mixed beam	!	!	!	!	!	!	!	!	!	!	!	!	!
8B-\L	.	8dd\L	.	24ff\LL	.	.	.	4r	.	4r	.	24ff\LL	.
.	.	.	.	24ee\	.	.	.	.	.	.	.	24ee\	.
.	.	.	.	24ff\JJ	.	.	.	.	.	.	.	24ff\JJ	.
8G\	.	8b-\J	.	24gg\LL	.	.	.	.	.	.	.	24gg\LL	.
.	.	.	.	24ff\	.	.	.	.	.	.	.	24ff\	.
.	.	.	.	24ee\JJ	.	.	.	.	.	.	.	24ee\JJ	.
!	!	!	!	!	!	!	!	!	!	!	!	!LO:SIC:v=znak nad nutą - zanotowane jako tryl	!
8A\	#	4cc#X\	.	4eet>\	.	.	.	8r	.	8r	.	4eet>\	.
8AA/J	.	.	.	.	.	.	.	16A/LL	.	16A/LL	.	.	.
.	.	.	.	.	.	.	.	16A/JJ	.	16A/JJ	.	.	.
4D/	.	8.dd\L	.	8.dd\L	.	.	.	4A/	.	4A/	.	8.dd\L	.
.	.	16dd\Jk	.	16ff\Jk	.	.	.	.	.	.	.	16ff\Jk	.
8r	.	16ccn'>\LL	.	(>16ee'>\LL	.	.	.	4r	.	4r	.	(>16ee'\LL	.
.	.	16b-X'>\	.	16dd'>\	.	.	.	.	.	.	.	16dd'>\	.
8Cn/	.	16a'>\	.	16cc'>\	.	.	.	.	.	.	.	16cc'>\	.
.	.	16g'>\JJ	.	16bn'>\JJ)	.	.	.	.	.	.	.	16bn'>\JJ)	.
=39	=39	=39	=39	=39	=39	=39	=39	=39	=39	=39	=39	=39	=39
!LO:TX:a:t=P:problem=mixed beam	!	!	!	!	!	!	!	!	!	!LO:TX:a:t=2	!	!	!
8FF/L	.	4f/	.	4a/	.	2rBB	.	0r	.	0r	.	4aa\	.
8F\J	.	.	.	.	.	.	.	.	.	.	.	.	.
!LO:LB:g=original	!	!	!	!	!	!	!	!	!	!	!	!	!
8E\L	.	4r	.	4r	.	.	.	.	.	.	.	4r	.
8C\J	.	.	.	.	.	.	.	.	.	.	.	.	.
4F\	.	8r	.	8r	.	4r	.	.	.	.	.	8r	.
.	.	8a/L	.	8cc\L	.	.	.	.	.	.	.	8cc\L	.
8r	.	8a/	.	8cc\	.	8r	.	.	.	.	.	8cc\	.
8F\	.	8a/J	.	8cc\J	.	8F\	O	.	.	.	.	8cc\J	.
!	!	!	!	!	!	!LO:LB:g=original	!	!	!	!	!	!	!
=40	=40	=40	=40	=40	=40	=40	=40	=40	=40	=40	=40	=40	=40
4F\	.	4a/	.	4cc\	.	4F\	Ju-	.	.	.	.	4ccc\	.
4F\	.	4r	.	4r	.	4F\	-da	.	.	.	.	4r	.
8F\L	.	8r	.	8r	.	8F\	os-	.	.	.	.	8r	.
16F\L	.	8a/L	.	8cc\L	.	16F\	-cu-	.	.	.	.	8ccc\L	.
16F\JJ	.	.	.	.	.	16F\	-lo	.	.	.	.	.	.
8F\L	.	8a/	.	8cc\	.	8A\	tra-	.	.	.	.	8ccc\	.
8F\J	.	8a/J	.	8cc\J	.	8A\	-dis	.	.	.	.	8ccc\J	.
!	!	!	!	!	!	!	!	!	!	!LO:LB:g=original	!	!	!
=41	=41	=41	=41	=41	=41	=41	=41	=41	=41	=41	=41	=41	=41
8D\L	.	8a\L	.	8ff\L	.	8d\	Fi-	8r	.	8r	.	8ff\L	.
16D\L	.	8a\	.	8ff\	.	16d\	-li-	8f\L	.	8a\L	.	8ff\	.
16D\JJ	.	.	.	.	.	16d\	-um	.	.	.	.	.	.
8.BBn/L	.	8dd\	.	8ff\	.	8.d\	ho-	8f\	.	8a\	.	8ff\	.
.	.	8dd\J	.	8ff\J	.	.	.	8f\J	.	8a\J	.	8ff\J	.
16BB/Jk	.	.	.	.	.	16d\	-mi-	.	.	.	.	.	.
4C/	.	8g/	.	8ee\L	.	4c\	-nis	8c/L	.	8g\L	.	8ee\L	.
.	.	8cc`>\L	.	8cc\J	.	.	.	16c/L	.	16g\L	.	8cc\J	.
.	.	.	.	.	.	.	.	16c/JJ	.	16g\JJ	.	.	.
8r	.	8g`>\	.	8g/L	.	8r	.	8c/L	.	8g\L	.	8gg\L	.
8c\	n	8e`>\J	.	8e/J	.	8c\	Mi-	8c/J	.	8g\J	.	8ee\J	.
!	!	!LO:LB:g=original	!	!LO:LB:g=original	!	!	!	!	!	!	!	!LO:LB:g=original	!
=42	=42	=42	=42	=42	=42	=42	=42	=42	=42	=42	=42	=42	=42
8c\L	.	4c/	.	4c/	.	8c\	-ni-	4c/	.	4g\	.	4ccc\	.
8c\J	.	.	.	.	.	8c\	-stri	.	.	.	.	.	.
8c\L	.	4r	.	4r	.	8c\	ve-	4r	.	4r	.	4r	.
16B-\L	.	.	.	.	.	16B-\	-ro	.	.	.	.	.	.
16c\JJ	.	.	.	.	.	16c\	du-	.	.	.	.	.	.
4A-X\	6	8r	.	8r	.	4A-X\	-xe-	2rg	.	2rg	.	8r	.
!	!	!	!	!	!LO:HP:b:i:t=pia	!	!	!	!	!	!	!	!
!	!	!	!	!	!LO:DY:b	!	!	!	!	!	!	!	!
.	.	8f/L	.	8f/L	p	.	.	.	.	.	.	8ff\L	.
!	!	!	!LO:HP:b:i:t=piano:	!	!	!	!	!	!	!	!	!	!
!	!	!	!LO:DY:b:rj	!	!	!	!	!	!	!	!	!	!
4F\	.	8f/	p	8f/	.	4F\	-runt	.	.	.	.	8ff\	.
.	.	8f/J	.	8f/J	.	.	.	.	.	.	.	8ff\J	.
!LO:LB:g=original	!	!	!	!	!	!LO:LB:g=original	!	!	!	!	!	!	!
=43	=43	=43	=43	=43	=43	=43	=43	=43	=43	=43	=43	=43	=43
!	!	!	!	!	!	!	!	!LO:TX:a:t=1	!	!	!	!	!
4B-\	-	8f/L	.	8f/L	.	4B-\	Je-	1r	.	1r	.	8ff\L	.
.	.	8f/	.	8f/	.	.	.	.	.	.	.	8ff\	.
8F\L	-	8f/	.	8f/	.	8A-X\	-sum	.	.	.	.	8ff\	.
8F\J	.	8f/J	.	8f/J	.	8A-\	Prin-	.	.	.	.	8ff\J	.
!LO:TX:a:t=P:problem=mixed beam	!	!	!	!	!	!	!	!	!	!	!	!	!
8En\L	6 5	8en/L	.	8en/L	.	8G\	-ci-	.	.	.	.	8een\L	.
8E\	.	8e/	.	8e/	.	16G\	-pem	.	.	.	.	8ee\	.
.	.	.	.	.	.	16G\	.	.	.	.	.	.	.
8F\	-	8f/	.	8f/	.	8F\	sa-	.	.	.	.	8ff\	.
8BBn/J	-7	8f/J	.	8f/J	.	8F\	-cer-	.	.	.	.	8ff\J	.
=44	=44	=44	=44	=44	=44	=44	=44	=44	=44	=44	=44	=44	=44
!	!	!	!	!LO:TX:a:t=P:problem=mixed beam	!	!	!	!	!	!	!	!	!
.	.	.	.	.	.	8qqF/	.	.	.	.	.	.	.
!	!	!LO:TX:a:t=P:problem=mixed beam	!	!	!	!	!	!	!	!	!	!	!
4C/	.	8c/L	.	8c/L	.	8En\	-do-	2rg	.	2rg	.	8ccc\L	.
!	!	!	!	!	!	!LO:SIC:s=tum	!	!	!	!	!	!	!
.	.	8cc/J	.	8ee\J	.	8E\	-tum	.	.	.	.	8ee\J	.
4r	.	(>16cc\LL	.	(>16ee\LL 16gg	.	4r	.	.	.	.	.	16gg\LL	.
.	.	16dd\)	.	16ff\)	.	.	.	.	.	.	.	16ff\	.
.	.	(>16dd\	.	(>16ff\	.	.	.	.	.	.	.	16ff\	.
.	.	16ee\JJ)	.	16gg\JJ)	.	.	.	.	.	.	.	16gg\JJ	.
4C/	.	8ee\	.	8gg\	.	8E\	Qui	8r	.	8r	.	8gg\	.
.	.	4e/	.	4g/	.	8E\	et	8c/	.	8g\	.	4gg\	.
4r	.	.	.	.	.	8F\	a-	8c\L	.	8g\L	.	.	.
.	.	8f/	.	8a/	.	8F\	-it	8f\J	.	8a\J	.	8gg\	.
!	!	!	!	!	!	!	!	!LO:LB:g=original	!	!	!	!	!
=45	=45	=45	=45	=45	=45	=45	=45	=45	=45	=45	=45	=45	=45
!	!	!	!	!	!	!	!	!LO:TX:a:t=P:problem=mixed beam	!	!	!	!	!
8r	.	8g\L	.	8b-\L	.	8G\	il-	8g\L	.	8b-\L	.	8b-\L	.
!LO:TX:a:t=P:problem=mixed beam	!	!	!	!	!	!	!	!	!	!	!	!	!
8c\L	.	8ee\J	.	8gg\J	.	8G\	-li	8c/J	.	8g\J	.	8gg\J	.
8c\	.	16ee\LL	.	16gg\LL	.	8r	.	16c\LL	.	16g\LL	.	16gg\LL	.
.	.	16ff\	.	16aa\	.	.	.	[>16f\	.	16a\	.	16aa\	.
8C/J	6 4	16ff\	.	16aa\	.	8G\	ad-	(>16f\]	.	16a\	.	16aa\	.
.	: 5	16gg\JJ	.	16bb-\JJ	.	.	.	16g\JJ)	.	16b-\JJ	.	16bb-\JJ	.
4C/	.	4gg\	.	4bb-\	.	8.G\	-ju-	4g\	.	4b-\	.	4bb-\	.
.	.	.	.	.	.	16G\	-ro	.	.	.	.	.	.
8r	.	4r	.	4r	.	8G\	te	4r	.	4r	.	4r	.
8C/	.	.	.	.	.	8G\	per	.	.	.	.	.	.
!	!	!LO:LB:g=original	!	!	!	!LO:LB:g=original	!	!	!	!	!	!	!
=46	=46	=46	=46	=46	=46	=46	=46	=46	=46	=46	=46	=46	=46
8C/L	5 3	2rg	.	2rg	.	4G\	De-	2rg	.	2rg	.	2rg	.
8C/	.	.	.	.	.	.	.	.	.	.	.	.	.
8C/	6 4	.	.	.	.	4A\	-um	.	.	.	.	.	.
8C/J	.	.	.	.	.	.	.	.	.	.	.	.	.
*	*	*	*	*	*	*	*	*2\right	*	*2\right	*	*	*
!	!	!	!	!LO:LB:g=original	!	!	!	!	!	!	!	!	!
8C/L	7 5	8r	.	8r	.	8B-\	vi-	2g\	.	2b-\	.	8r	.
!	!	!	!	!LO:TX:a:t=P:problem=mixed beam	!	!	!	!	!	!	!	!LO:TX:a:t=P:problem=mixed beam	!
8C/	.	8b-/L	.	8gg\L	.	8B-\	-vum	.	.	.	.	8gg\L	.
8C/	.	8b-/	.	8gg\	.	8r	.	.	.	.	.	8gg\	.
8C/J	.	8g/J	.	8b-/J	.	8B-\	ut	.	.	.	.	8g/J	.
=47	=47	=47	=47	=47	=47	=47	=47	=47	=47	=47	=47	=47	=47
8E\L	5	4g/	.	4b-/	.	4B-\	di-	4g\	.	4b-\	.	4b-\	.
8E\	.	.	.	.	.	.	.	.	.	.	.	.	.
8E\	.	4r	.	4r	.	4G\	-cas	4r	.	4r	.	4r	.
8E\J	.	.	.	.	.	.	.	.	.	.	.	.	.
!LO:LB:g=original	!	!	!	!	!	!	!	!	!	!	!	!	!
8F\L	#3	8r	.	8r	.	8G\	no-	4f\	.	4a\	.	8r	.
!	!	!	!	!LO:TX:a:t=P:problem=mixed beam	!	!	!	!	!	!	!	!	!
8F\	.	8a/L	.	8cc\L	.	8F\	-bis	.	.	.	.	8ccc\L	.
8F\	.	(<8a/	.	8cc\	.	16r	.	4r	.	4r	.	8ccc\	.
.	.	.	.	.	.	16A\	si-	.	.	.	.	.	.
.	.	16qqg/	.	.	.	.	.	.	.	.	.	.	.
8F\J	.	8f/J)	.	8a/J	.	16A\	-tu-	.	.	.	.	8aa\J	.
.	.	.	.	.	.	16A\	-es	.	.	.	.	.	.
!	!	!	!	!	!	!	!	!	!	!LO:LB:g=original	!	!LO:LB:g=original	!
=48	=48	=48	=48	=48	=48	=48	=48	=48	=48	=48	=48	=48	=48
8B-\L	.	4f/	.	4dd\	.	8B-\	Chri-	4f\	.	4f\	.	4dd\	.
8B-\	.	.	.	.	.	8B-\	-stus	.	.	.	.	.	.
8B-\	.	8r	.	8r	.	8B-\	.	4r	.	4r	.	8r	.
8B-\J	.	8g/	.	8dd\	.	16B-\	fi-	.	.	.	.	8dd\	.
.	.	.	.	.	.	16B-\	-lius	.	.	.	.	.	.
8c\L	.	4g/	.	4ee\	.	4.c\	De-	4c/	.	4a\	.	4ee\	.
8c\	.	.	.	.	.	.	.	.	.	.	.	.	.
8c\	.	4r	.	4r	.	.	.	4r	.	4r	.	4r	.
8c\J	.	.	.	.	.	8c\	-i	.	.	.	.	.	.
=49	=49	=49	=49	=49	=49	=49	=49	=49	=49	=49	=49	=49	=49
4F\	.	8r	.	8r	.	8F\	vi-	8r	.	8r	.	8r	.
.	.	8a/	.	8cc\	.	8F\	vi	8a\	.	8cc\	.	8ccc\	.
4r	.	16a/LL	.	(<16cc/LL	.	4r	.	(>16a\LL	.	16cc\LL	.	(>16ccc\LL	.
.	.	16g/	.	16b-/)	.	.	.	16g\)	.	16b-\	.	16bb-\)	.
!	!	!LO:TX:b:t=g	!	!	!	!	!	!	!	!	!	!	!
.	.	16g/	.	(<16b-/	.	.	.	(>16g\	.	16b-\	.	(>16bb-\	.
.	.	16f/JJ	.	16a/JJ)	.	.	.	16f\JJ)	.	16a\JJ	.	16aa\JJ)	.
*	*	*custos:f	*	*	*	*	*	*	*	*	*	*	*
!LO:TX:a:t=P:problem=mixed beam	!	!	!	!	!	!	!	!	!	!	!	!	!
!	!	!LO:LB:g=original	!	!	!	!LO:LB:g=original	!	!	!	!	!	!	!
8FF/L	.	4f/	.	4a/	.	8A\	a-	4f\	.	4a\	.	4aa\	.
8F\	.	.	.	.	.	8A\	-it	.	.	.	.	.	.
8A\	.	8r	.	8r	.	8A\	il-	4r	.	4r	.	8r	.
8F\J	.	8a/	.	8cc\	.	8A\	-li	.	.	.	.	8ccc\	.
!	!	!	!	!LO:LB:g=original	!	!	!	!	!	!	!	!	!
!	!	!	!	!	!	!	!	!LO:LB:g=original	!	!	!	!	!
=50	=50	=50	=50	=50	=50	=50	=50	=50	=50	=50	=50	=50	=50
*	*	*	*	*2\right	*	*	*	*	*	*	*	*	*
!LO:TX:a:t=P:problem=mixed beam	!	!	!	!	!	!	!	!	!	!	!	!	!
8B-\L	.	2f/	.	2dd\	.	4B-\	Je-	2rg	.	2rg	.	2dd\	.
8BB-/	.	.	.	.	.	.	.	.	.	.	.	.	.
8D/	.	.	.	.	.	4B-\	-sus	.	.	.	.	.	.
8E/J	.	.	.	.	.	.	.	.	.	.	.	.	.
8F\L	.	4.a/	.	4.cc\	.	4.A\	tu	8r	.	8r	.	4.ccc\	.
!	!	!	!	!	!	!	!	!	!LO:HP:b:i:t=piano	!	!LO:HP:b:i:t=pia:	!	!
!	!	!	!	!	!	!	!	!	!LO:DY:b	!	!LO:DY:b:rj	!	!
8G\	.	.	.	.	.	.	.	4a\	p	4cc\	p	.	.
8A\	.	.	.	.	.	.	.	.	.	.	.	.	.
8B-\J	.	16g/LL	.	16b-/LL	.	16G\LL	di-	16g\LL	.	16b-\LL	.	16bb-\LL	.
.	.	16f/JJ	.	16a/JJ	.	16F\JJ	.	16f\JJ	.	16a\JJ	.	16aa\JJ	.
!LO:LB:g=original	!	!	!	!	!	!	!	!	!	!	!	!	!
=51	=51	=51	=51	=51	=51	=51	=51	=51	=51	=51	=51	=51	=51
4c\	5 3	4e/	.	4.g/	.	4E\	-xi-	8c`>\L	.	8g`>\L	.	4.gg\	.
.	6 4	.	.	.	.	.	.	(>8c\	.	(>8g\	.	.	.
4C/	7 5	8f/L	.	.	.	8F\L	.	8f\	.	8a\	.	.	.
.	.	8g/J	.	16a/LL	.	8G\J	.	8g\J)	.	8b-\J)	.	16aa\LL	.
.	.	.	.	16b-/JJ	.	.	.	.	.	.	.	16bb-\JJ	.
*	*	*	*	*	*	*2\right	*	*	*	*	*	*	*
!LO:TX:a:t=P:problem=mixed beam	!	!	!	!	!	!	!	!LO:TX:a:t=P:problem=mixed beam	!	!LO:TX:a:t=P:problem=mixed beam	!	!	!
8F\L	.	8f/L	.	8a/L	.	2F\	-sti	8f\L	.	8a\L	.	8aa\L	.
8FF/	.	(<8c'</	.	8a/	.	.	.	16A/L	.	16c/L	.	8aa\	.
.	.	.	.	.	.	.	.	16A/JJ	.	16c/JJ	.	.	.
8FF/	.	8c'</	.	8a/	.	.	.	8A/L	.	8c/L	.	8aa\	.
8FF/J	.	8c'</J)	.	8a/J	.	.	.	8A/J	.	8c/J	.	8aa\J	.
=52	=52	=52	=52	=52	=52	=52	=52	=52	=52	=52	=52	=52	=52
1FF;>	.	1c;>	.	1a;>/	.	1r;<	.	1F;>	.	2A;</	.	1aa;>	.
.	.	.	.	.	.	.	.	.	.	2rg	.	.	.
==	==	==	==	==	==	==	==	==	==	==	==	==	==
*-	*-	*-	*-	*-	*-	*-	*-	*-	*-	*-	*-	*-	*-
!!!system-decoration: s1,s2,s3,s4,s5,s6,s7
!!!RDF**kern: > = above
!!!RDF**kern: < = below
!!!EED: Mateusz Mrugas
!!!EEV: 2020-10-09
!!!ENC: Andrzej Gręziak
!!!END: 2020-04-30
!!!YEC: Copyright 2022 Narodowy Instytut Fryderyka Chopina (https://polishscores.org)
!!!YEM: License CC-BY-4.0 (https://creativecommons.org/licenses/by/4.0)
